X: 898
T: Görünce Ben Seni Ey Mâh
C: Selânikli Ahmed Bey
O: Turkey
F: http://compmusic.upf.edu/node/140
N: karcigar--sarki--curcuna--gorunce_ben--selanikli_ahmed_bey
N: makam= karcigar
N: form= sarki
N: usul= curcuna = 10/8
M: 10/8
L: 1/16
K: C _2/4B _3/4e ^3/4f 
Q: 1/4=228
%%MIDI tuningsystem comma53
z4 f2g4g2 f2g4z2  | f2g2 _b2a2 g2f2 =e2f4z2  | \
w:   |   | 
z4 d2e4e2 d2e2 d2c2  | 
w:   | 
d4 e2d2 c2c2 B2c4z2  | d2=e2 =f2e2 f2e2 a2_2/4e4d2  | \
w:   |   | 
d4 _b2a2 g2f2 e2d2 c2B2  | 
w:   | 
A4 =f2=e2 d2d2 c2B2 A2G2  | A2B2 d2c2 B2A2 G2A6  | \
w:   |   | 
z4 f2g4g2 f2g4z2  | 
w:   | 
f2g2 _b2a2 g2f2 =e2f4z2  | z4 d2e4e2 d2e2 d2c2  | \
w:   |   | 
d4 e2d2 c2c2 B2c4z2  | 
w:   | 
d2=e2 =f2e2 f2e2 a2_2/4e4d2  | d4 _b2a2 g2f2 e2d2 c2B2  | \
w:   |   | 
A4 =f2=e2 d2d2 c2B2 A2G2  | 
w:   | 
A2B2 d2c2 B2A2 G2A6  | z4 g2a4a8-a2  | \
w:   |  Gö rün ce   | 
b6c'4_7/8b2 a2g2 f2g2  | a18z2  | 
w:  ben  se ni   |  ey   | 
z4 b2c'8_b2 a2g2  | z4 a2_b8a2 g2f2  | \
w:  ey   |  ey   | 
g2a2 b2c'2 d'2c'2 _7/8b2b4ba  | 
w:   | 
a18z2  | a4 c'2b2 a2g2 f2e4d2  | d4 g2f2 =e2f2 g2a4z2  | \
w:  mâh    |  SAZ  |   | 
z4 g2a4a4a4g2  | 
w:  Pe rî şân dır   | 
g2=f2 _b2a2 g2g2 {a}f2g4z2  | z4 _b2a2 g2g2 =f2_2/4e2 d2e2  | \
w:  *  *  be nim  *  ha *  *  lim   |  of   | 
=f2g2 _b2a2 g2g2 f2_1/4e2 ^d2e2  | 
w:   | 
_b12 a2a2 {b}a2{b}g2  | g4 _b2a2 g2g2 =f2f4=e2  | \
w:  of   |   | 
_1/4e18z2  | =f2g2 a4 g2g2 f2_1/4e2 ^d2e2  | 
w:  of    |  SAZ  | 
=f2g2 _b2a2 g2g2 f2_2/4e2 ^3/4f2g2  | \
w:   | 
a4 g2a4a4a6  | _2/4e4 _3/4e2e2 d2d2 {f}edd4z2  | 
w:  *  Pe rî şân dır   |  *  be nim  *  ha *  *  *  lim   | 
g2f2 a2g2 f2e2 d2c2 B2c2  | d18z2  | \
w:  of   |   | 
e2d2 c2c4c8B2  | B2A2 B2c2 d2c2 B2B4A2  | 
w:  of   |   | 
A18z2  | z4 f2g4g2 f2g4z2  | c4 d2e4f4g4z2  | \
w:  of    |  SAZ  |   | 
z4 f2g4g4g4z2  | 
w:  Ye ter  gay ri   | 
z4 _b2a2 g2{a}g2 {a}f2g6  | g4 _b2a2 g2g2 =f2_1/4e2 ^d2e2  | \
w:  bu   |   | 
c4 ^d4 _1/4e2=f4g4z2  | 
w:   | 
z4 _b2a2 g2f2 g2a2 =b2d'2  | c'8-c'2_7/8b2 a2g2 f2g2  | \
w:  bu   |  âh_ ü   | 
a18z2  | a4 c'2b2 a2g2 f2e4d2  | 
w:  vah    |  SAZ  | 
d4 g2f2 =e2f2 g2a4z2  | z4 g2a4a4a4g2  | \
w:   |  Pe rî şân dır   | 
g2=f2 _b2a2 g2g2 {a}f2g4z2  | 
w:  *  *  be nim  *  ha *  *  lim   | 
z4 _b2a2 g2g2 =f2_2/4e2 d2e2  | =f2g2 _b2a2 g2g2 f2_1/4e2 ^d2e2  | \
w:  of   |   | 
_b12 a2a2 {b}a2{b}g2  | 
w:  of   | 
g4 _b2a2 g2g2 =f2f4=e2  | _1/4e18z2  | \
w:   |  of    | 
=f2g2 a4 g2g2 f2_1/4e2 ^d2e2  | =f2g2 _b2a2 g2g2 f2_2/4e2 ^3/4f2g2  | 
w:  SAZ  |   | 
a4 g2a4a4a6  | _2/4e4 _3/4e2e2 d2d2 {f}edd4z2  | \
w:  *  Pe rî şân dır   |  *  be nim  *  ha *  *  *  lim   | 
g2f2 a2g2 f2e2 d2c2 B2c2  | 
w:  of   | 
d18z2  | e2d2 c2c4c8B2  | B2A2 B2c2 d2c2 B2B4A2  | \
w:   |  of   |   | 
A18z2  | |


